!!!OTL: 775. Der Todesschlummer. / Andere Melodie.
!!!COM: Chr. G. Tag
!!!ARE: Europa, Mitteleuropa, Deutschland
!!!SCT: B0775A
!!!TXL: @@DE
!!!YEM: Copyright 1995, estate of Helmut Schaffrath.
**kern
*ICvox
*Ivox
*clefG2
*M3/4
*k[b-e-a-]
*E-:
=1
{(4b-
4cc)
4b-
=2
(<4b-
4a-)
4g
=3
(4f
4a-)
8gL
8fJ
=4
(8e-qq
4d)
4e-
4r}
=5
{2f
4f
=6
(4f
4ee-)
4dd
=7
(8ddqq
(4cc)
8ee-L
8ccJ)
8b-L
8aJ
=8
(4a-qq
2b-)
4r}
=9
{(4b-
4cc)
4b-
=10
(<4b-
4a-)
4g
=11
(4f
4a-)
8gL
8fJ
=12
(8e-qq
4d)
4e-
4r}
=13
{2f
4f
=14
(4f
4ee-)
4dd
=15
(8ddqq
(4cc)
8ee-L
8ccJ)
8b-L
8aJ
=16
(4a-qq
2b-)
4r}
=17
{(4.dd
8ff)
16ee-L
16dd
16cc
16b-J
=18
2ee-
4b-
=19
2ff
4a-
=20
(4a-
4g)
4r}
=21
{(4b-
4cc)
4dd
=22
2ee-
4ee-
=23
(4ee-
8ggL
8ee-J)
8ffL
8ddJ
=24
(4ddqq
2ee-)
4r}
==
!!!AGN: Trost - Lied, Tod, religioes
!!!ONB: ESAC (Essen Associative Code) Database: BOEHME
!!!AMT: simple triple
!!!AIN: vox
!!!EED: Helmut Schaffrath
!!!EEV: 1.0
!!!RDF**kern: < = below
!!!GTL: Religioese Lieder
!!Chr. G. Tag. (Mildheim. Ldb. 1799, Nr. 517.)
!!!URL-scan: https://archive.org/details/BoehmeVtLieder1895/page/n619/mode/2up
!!!ENC: Anna Maria Matuszewska
!!!EEV: 2024/19/07
*-
